X: 1
T: Debka Rafiach
O: Israel
M: 2/4
L: 1/16
K: DPhrygian
|: "Gm"GFGE "F"FEF2 | "Eb"EDE2 "Dm"DCDE | "F"FEF2 "Eb"EDE2 | "Dm"D4- D4 :|
|: "Gm"DCDE "F"FEF2 | "Eb"EDE2 "Dm"D2GF | "Gm"G2G2 "F"FEF2 \
| "Eb"EDE2 "Dm"DCDE | "F"FEF2 "Eb"EDE2 | "Dm"D4- D4 :|
|| "Gm"G3A/G/ "F"F4 | "Gm"G3A/G/ "F"F4 | "Gm"G3A/G/ "F"F2F2 \
| "Gm"G2G2 "F"F2F2 | "Gm"G2G2 "F"FEF2 | "Dm"D4- D4 |]
%%sep 3 1 500
